source/img/sprite/viber.svg

<svg width="79" height="87" viewBox="0 0 79 87" fill="none" xmlns="http://www.w3.org/2000/svg">
<path fill-rule="evenodd" clip-rule="evenodd" d="M78.1705 40.5959C78.1705 14.9909 69.1508 3.24585 39.0853 3.24585C9.01967 3.24585 0 14.9909 0 40.5959C0 58.8181 4.56821 70.0207 18.0393 74.9659V83.5868C18.0393 86.76 22.0209 88.2095 24.0833 85.7871L31.0347 77.6225C33.5332 77.8387 36.2132 77.9459 39.0853 77.9459C69.1508 77.9459 78.1705 66.2008 78.1705 40.5959ZM32.6955 71.7331C34.6886 71.8914 36.8161 71.9699 39.0853 71.9699C64.5254 71.9699 72.1574 62.104 72.1574 40.5959C72.1574 19.0877 64.5254 9.22185 39.0853 9.22185C13.6451 9.22185 6.01312 19.0877 6.01312 40.5959C6.01312 55.7985 9.82618 65.1846 21.0459 69.3813V82.1531C21.0459 83.2665 22.4429 83.775 23.1666 82.9251L32.6955 71.7331Z" fill="#BFC8D0"/>
<path d="M39.0853 69.8437C36.7866 69.8437 34.6315 69.7639 32.6125 69.603L22.9599 80.9836C22.2268 81.8479 20.8116 81.3308 20.8116 80.1986V67.2115C9.4462 62.944 5.58362 53.3997 5.58362 37.9407C5.58362 16.0699 13.3148 6.03766 39.0853 6.03766C64.8558 6.03766 72.5869 16.0699 72.5869 37.9407C72.5869 59.8115 64.8558 69.8437 39.0853 69.8437Z" fill="#9179EE"/>
<path fill-rule="evenodd" clip-rule="evenodd" d="M78.1711 37.8041C78.1711 12.1992 69.1514 0.454102 39.0858 0.454102C9.02022 0.454102 0.000549316 12.1992 0.000549316 37.8041C0.000549316 56.0263 4.56876 67.2289 18.0399 72.1741V80.7951C18.0399 83.9683 22.0214 85.4177 24.0839 82.9954L31.0353 74.8308C33.5337 75.047 36.2137 75.1541 39.0858 75.1541C69.1514 75.1541 78.1711 63.409 78.1711 37.8041ZM32.6961 68.9414C34.6891 69.0996 36.8166 69.1781 39.0858 69.1781C64.5259 69.1781 72.1579 59.3122 72.1579 37.8041C72.1579 16.296 64.5259 6.4301 39.0858 6.4301C13.6457 6.4301 6.01366 16.296 6.01366 37.8041C6.01366 53.0068 9.82673 62.3928 21.0465 66.5896V79.3613C21.0465 80.4747 22.4435 80.9833 23.1671 80.1333L32.6961 68.9414Z" fill="white"/>
<path d="M39.9855 14.413C39.1399 14.413 38.4545 15.0582 38.4545 15.854C38.4545 16.6498 39.1399 17.2949 39.9855 17.2949C50.132 17.2949 58.3574 25.0364 58.3574 34.5861C58.3574 35.3819 59.0428 36.027 59.8883 36.027C60.7339 36.027 61.4193 35.3819 61.4193 34.5861C61.4193 23.4448 51.8231 14.413 39.9855 14.413Z" fill="white"/>
<path d="M20.3875 19.114C21.2553 18.6942 22.7838 18.4814 23.6599 19.2496C24.7549 20.2098 26.4427 21.893 27.6022 23.3616C28.7616 24.8301 30.3849 27.0669 30.6168 27.5639C30.8487 28.061 31.1064 29.8233 29.9469 30.8852C29.0193 31.7347 27.8083 32.4893 27.3187 32.7605C26.8635 33.137 26.118 34.2426 26.7776 35.6524C27.6022 37.4147 29.38 40.8715 32.4463 43.4472C35.5125 46.0228 38.7591 47.3784 40.7946 47.8077C40.9241 47.8077 41.0904 47.8368 41.2831 47.8705C41.9727 47.9912 43.0005 48.171 43.8866 47.2881C44.7936 46.3843 45.6216 45.4354 45.9222 45.0739C46.3946 44.5919 47.7671 43.7725 49.478 44.3509C51.6166 45.0739 54.0644 46.6555 55.1724 47.401C56.0588 47.9975 58.0325 49.4119 58.9085 50.0445C59.4411 50.4286 60.3309 51.5718 59.63 53.072C58.7539 54.9473 55.0178 59.0819 51.6681 59.0819C50.4314 59.0819 38.4756 55.8962 27.9113 46.904C21.1632 41.1601 15.3544 31.194 14.3581 27.8351C13.9802 27.0368 13.5336 25.0696 14.7704 23.5875C16.0072 22.1054 17.3986 20.56 20.3875 19.114Z" fill="white"/>
<path d="M39.9855 25.9405C39.1399 25.9405 38.4545 26.5856 38.4545 27.3814C38.4545 28.1772 39.1399 28.8223 39.9855 28.8223C43.3677 28.8223 46.1094 31.4028 46.1094 34.5861C46.1094 35.3819 46.7949 36.027 47.6404 36.027C48.486 36.027 49.1714 35.3819 49.1714 34.5861C49.1714 29.8112 45.0587 25.9405 39.9855 25.9405Z" fill="white"/>
<path d="M38.4545 21.6177C38.4545 20.8219 39.1399 20.1767 39.9855 20.1767C48.4409 20.1767 55.2954 26.628 55.2954 34.5861C55.2954 35.3819 54.6099 36.027 53.7644 36.027C52.9188 36.027 52.2334 35.3819 52.2334 34.5861C52.2334 28.2196 46.7498 23.0586 39.9855 23.0586C39.1399 23.0586 38.4545 22.4135 38.4545 21.6177Z" fill="white"/>
</svg>

<svg width="79" height="87" fill="none" xmlns="http://www.w3.org/2000/svg"><path fill-rule="evenodd" clip-rule="evenodd" d="M78.17 40.596c0-25.605-9.02-37.35-39.085-37.35S0 14.99 0 40.596c0 18.222 4.568 29.425 18.04 34.37v8.62c0 3.174 3.98 4.624 6.043 2.201l6.952-8.165c2.498.217 5.178.324 8.05.324 30.066 0 39.086-11.745 39.086-37.35zM32.697 71.733c1.993.158 4.12.237 6.39.237 25.44 0 33.071-9.866 33.071-31.374S64.525 9.222 39.085 9.222 6.013 19.088 6.013 40.596c0 15.203 3.813 24.589 15.033 28.785v12.772c0 1.113 1.397 1.622 2.12.772l9.53-11.192z" fill="#BFC8D0"/><path d="M39.085 69.844a81.63 81.63 0 01-6.473-.241l-9.652 11.38c-.733.865-2.148.348-2.148-.784V67.212C9.446 62.944 5.584 53.4 5.584 37.94c0-21.871 7.73-31.903 33.501-31.903 25.77 0 33.502 10.032 33.502 31.903 0 21.87-7.731 31.903-33.502 31.903z" fill="#9179EE"/><path fill-rule="evenodd" clip-rule="evenodd" d="M78.171 37.804c0-25.605-9.02-37.35-39.085-37.35C9.02.454 0 12.2 0 37.804c0 18.222 4.569 29.426 18.04 34.37v8.621c0 3.173 3.981 4.623 6.044 2.2l6.951-8.164a93.6 93.6 0 008.05.323c30.066 0 39.086-11.745 39.086-37.35zM32.696 68.941c1.993.159 4.12.237 6.39.237 25.44 0 33.072-9.866 33.072-31.374S64.526 6.43 39.086 6.43c-25.44 0-33.072 9.866-33.072 31.374 0 15.203 3.813 24.589 15.033 28.786v12.77c0 1.114 1.396 1.622 2.12.772l9.53-11.192z" fill="#fff"/><path d="M39.986 14.413c-.846 0-1.531.645-1.531 1.441s.685 1.44 1.53 1.44c10.147 0 18.372 7.742 18.372 17.292 0 .796.686 1.441 1.531 1.441.846 0 1.531-.645 1.531-1.44 0-11.142-9.596-20.174-21.433-20.174zm-19.599 4.701c.868-.42 2.397-.633 3.273.136 1.095.96 2.783 2.643 3.942 4.112 1.16 1.468 2.783 3.705 3.015 4.202.232.497.49 2.26-.67 3.321-.928.85-2.139 1.604-2.628 1.875-.456.377-1.201 1.483-.541 2.892.824 1.763 2.602 5.22 5.668 7.795 3.067 2.576 6.313 3.931 8.349 4.36.13 0 .295.03.488.063.69.121 1.718.301 2.604-.582a36.45 36.45 0 002.035-2.214c.473-.482 1.845-1.301 3.556-.723 2.139.723 4.586 2.305 5.694 3.05.887.596 2.86 2.01 3.736 2.643.533.385 1.423 1.528.722 3.028-.876 1.875-4.612 6.01-7.962 6.01-1.237 0-13.192-3.186-23.757-12.178-6.748-5.744-12.557-15.71-13.553-19.069-.378-.798-.824-2.765.412-4.248 1.237-1.482 2.629-3.027 5.617-4.473zm19.599 6.826c-.846 0-1.531.646-1.531 1.441 0 .796.685 1.441 1.53 1.441 3.383 0 6.124 2.58 6.124 5.764 0 .796.686 1.441 1.531 1.441.846 0 1.531-.645 1.531-1.44 0-4.776-4.112-8.647-9.185-8.647z" fill="#fff"/><path d="M38.455 21.618c0-.796.685-1.441 1.53-1.441 8.456 0 15.31 6.451 15.31 14.41 0 .795-.685 1.44-1.53 1.44-.846 0-1.532-.645-1.532-1.44 0-6.367-5.483-11.528-12.247-11.528-.846 0-1.531-.646-1.531-1.441z" fill="#fff"/></svg>
